packages/tokens/icons/insightPanel1/size16Px.svg

<svg viewBox="0 0 16 16" fill="none" xmlns="http://www.w3.org/2000/svg" width="1em" height="1em"><path d="M13.5 4.32609V3.5C13.5 2.39543 12.6046 1.5 11.5 1.5L5.5 1.5C4.39543 1.5 3.5 2.39543 3.5 3.5L3.5 12.5C3.5 13.6046 4.39543 14.5 5.5 14.5H11.5C12.6046 14.5 13.5 13.6046 13.5 12.5V11.5" stroke="currentColor" stroke-linecap="round"/><circle cx="11.5" cy="7.5" r="2" stroke="currentColor"/><path d="M14.1464 10.8518C14.3417 11.0471 14.6583 11.0471 14.8536 10.8518C15.0488 10.6566 15.0488 10.34 14.8536 10.1447L14.1464 10.8518ZM13.3553 8.64645L13.0017 8.29289L12.2946 9L12.6482 9.35355L13.3553 8.64645ZM14.8536 10.1447L13.3553 8.64645L12.6482 9.35355L14.1464 10.8518L14.8536 10.1447Z" fill="currentColor"/><path d="M5.5 11.5H10.5" stroke="currentColor" stroke-linecap="round"/><path d="M5.5 4.5H8.5" stroke="currentColor" stroke-linecap="round"/><path d="M5.5 8H9.5" stroke="currentColor" stroke-linecap="round"/></svg>

<svg xmlns="http://www.w3.org/2000/svg" fill="none" viewBox="0 0 16 16" width="1em" height="1em"><path stroke="currentColor" stroke-linecap="round" d="M13.5 4.326V3.5a2 2 0 0 0-2-2h-6a2 2 0 0 0-2 2v9a2 2 0 0 0 2 2h6a2 2 0 0 0 2-2v-1"/><circle cx="11.5" cy="7.5" r="2" stroke="currentColor"/><path fill="currentColor" d="M14.146 10.852a.5.5 0 0 0 .708-.707l-.708.707Zm-.79-2.206-.354-.353-.707.707.353.354.707-.708Zm1.498 1.499-1.499-1.499-.707.708 1.498 1.498.708-.707Z"/><path stroke="currentColor" stroke-linecap="round" d="M5.5 11.5h5m-5-7h3M5.5 8h4"/></svg>
